ui/src/assets/images/resources/crb.svg

<?xml version="1.0" encoding="UTF-8" standalone="no"?>
<!-- Created with Inkscape (http://www.inkscape.org/) -->

<svg
   xmlns:dc="http://purl.org/dc/elements/1.1/"
   xmlns:cc="http://creativecommons.org/ns#"
   xmlns:rdf="http://www.w3.org/1999/02/22-rdf-syntax-ns#"
   xmlns:svg="http://www.w3.org/2000/svg"
   xmlns="http://www.w3.org/2000/svg"
   xmlns:sodipodi="http://sodipodi.sourceforge.net/DTD/sodipodi-0.dtd"
   xmlns:inkscape="http://www.inkscape.org/namespaces/inkscape"
   width="18.035334mm"
   height="17.500378mm"
   viewBox="0 0 18.035334 17.500378"
   version="1.1"
   id="svg13826"
   inkscape:version="0.91 r13725"
   sodipodi:docname="crb.svg">
  <defs
     id="defs13820" />
  <sodipodi:namedview
     id="base"
     pagecolor="#ffffff"
     bordercolor="#666666"
     borderopacity="1.0"
     inkscape:pageopacity="0.0"
     inkscape:pageshadow="2"
     inkscape:zoom="8"
     inkscape:cx="-2.090004"
     inkscape:cy="28.752239"
     inkscape:document-units="mm"
     inkscape:current-layer="layer1"
     showgrid="false"
     inkscape:window-width="1440"
     inkscape:window-height="775"
     inkscape:window-x="0"
     inkscape:window-y="1"
     inkscape:window-maximized="1"
     fit-margin-top="0"
     fit-margin-left="0"
     fit-margin-right="0"
     fit-margin-bottom="0" />
  <metadata
     id="metadata13823">
    <rdf:RDF>
      <cc:Work
         rdf:about="">
        <dc:format>image/svg+xml</dc:format>
        <dc:type
           rdf:resource="http://purl.org/dc/dcmitype/StillImage" />
        <dc:title />
      </cc:Work>
    </rdf:RDF>
  </metadata>
  <g
     inkscape:label="Calque 1"
     inkscape:groupmode="layer"
     id="layer1"
     transform="translate(-0.99262638,-1.174181)">
    <path
       id="path8732"
       d="m 6.8821333,9.92437 c 0,-0.660388 0.53682,-1.197192 1.1972,-1.197192 l 1.5447698,0 0,-0.733764 -1.5447698,0 c -1.06589,0 -1.93095,0.865069 -1.93095,1.930956 0,1.065887 0.86506,1.930956 1.93095,1.930956 l 1.5447698,0 0,-0.733764 -1.5447698,0 c -0.66038,0 -1.1972,-0.536806 -1.1972,-1.197192 z m 1.5834,0.386191 3.0895197,0 0,-0.772382 -3.0895197,0 z m 3.4757197,-2.317147 -1.54477,0 0,0.733764 1.54477,0 c 0.66038,0 1.19718,0.536804 1.19718,1.197192 0,0.660386 -0.5368,1.197192 -1.19718,1.197192 l -1.54477,0 0,0.733764 1.54477,0 c 1.06589,0 1.93095,-0.865069 1.93095,-1.930956 0,-1.065887 -0.86506,-1.930956 -1.93095,-1.930956 z"
       inkscape:connector-curvature="0"
       style="fill:#8FA4B1;fill-opacity:1;stroke-width:0.3861911" />
  </g>
</svg>

<?xml version="1.0" encoding="UTF-8" standalone="no"?>
<!-- Created with Inkscape (http://www.inkscape.org/) -->

<svg
   xmlns:dc="http://purl.org/dc/elements/1.1/"
   xmlns:cc="http://creativecommons.org/ns#"
   xmlns:rdf="http://www.w3.org/1999/02/22-rdf-syntax-ns#"
   xmlns:svg="http://www.w3.org/2000/svg"
   xmlns="http://www.w3.org/2000/svg"
   xmlns:sodipodi="http://sodipodi.sourceforge.net/DTD/sodipodi-0.dtd"
   xmlns:inkscape="http://www.inkscape.org/namespaces/inkscape"
   width="7.7238197mm"
   height="3.861912mm"
   viewBox="0 0 7.7238199 3.8619121"
   version="1.1"
   id="svg13826"
   inkscape:version="0.92.2 5c3e80d, 2017-08-06"
   sodipodi:docname="crb.svg">
  <defs
     id="defs13820" />
  <sodipodi:namedview
     id="base"
     pagecolor="#ffffff"
     bordercolor="#666666"
     borderopacity="1.0"
     inkscape:pageopacity="0.0"
     inkscape:pageshadow="2"
     inkscape:zoom="8"
     inkscape:cx="-21.576329"
     inkscape:cy="2.9787612"
     inkscape:document-units="mm"
     inkscape:current-layer="layer1"
     showgrid="false"
     inkscape:window-width="1680"
     inkscape:window-height="912"
     inkscape:window-x="0"
     inkscape:window-y="1"
     inkscape:window-maximized="1"
     fit-margin-top="0"
     fit-margin-left="0"
     fit-margin-right="0"
     fit-margin-bottom="0" />
  <metadata
     id="metadata13823">
    <rdf:RDF>
      <cc:Work
         rdf:about="">
        <dc:format>image/svg+xml</dc:format>
        <dc:type
           rdf:resource="http://purl.org/dc/dcmitype/StillImage" />
        <dc:title />
      </cc:Work>
    </rdf:RDF>
  </metadata>
  <g
     inkscape:label="Calque 1"
     inkscape:groupmode="layer"
     id="layer1"
     transform="translate(-6.1483833,-7.993414)">
    <path
       id="path8732"
       d="m 6.8821333,9.92437 c 0,-0.660388 0.53682,-1.197192 1.1972,-1.197192 H 9.6241031 V 7.993414 H 8.0793333 c -1.06589,0 -1.93095,0.865069 -1.93095,1.930956 0,1.065887 0.86506,1.930956 1.93095,1.930956 H 9.6241031 V 11.121562 H 8.0793333 c -0.66038,0 -1.1972,-0.536806 -1.1972,-1.197192 z m 1.5834,0.386191 H 11.555053 V 9.538179 H 8.4655333 Z M 11.941253,7.993414 h -1.54477 v 0.733764 h 1.54477 c 0.66038,0 1.19718,0.536804 1.19718,1.197192 0,0.660386 -0.5368,1.197192 -1.19718,1.197192 h -1.54477 v 0.733764 h 1.54477 c 1.06589,0 1.93095,-0.865069 1.93095,-1.930956 0,-1.065887 -0.86506,-1.930956 -1.93095,-1.930956 z"
       inkscape:connector-curvature="0"
       style="fill:#8fa4b1;fill-opacity:1;stroke-width:0.3861911" />
  </g>
</svg>
